X: 5
M: C|
L: 1/8
K: C
[|\
EG Gc G/G/G cG | c>de>c d/d/d D2 |\
EG Gg e/f/g de | cA GE C/C/C C |]\
c |\
ge cg ae gd | ec ge c/c/c cg |\
ae gd ec ge | f/g/a ge d/d/d D2 |\
E/F/G A/B/c e/f/g de | cA GE C/C/C C |]


